X:334
T: OB ICH A  NUR A HIRTE BIN
N: E1486
O: Europa, Mitteleuropa, Deutschland; Boehmen, Riesengebirge
R: Staende - Lied, Hirten -,  Schaefer - Lied
M: 3/4
L: 1/16
K: Bb
 | F2A2B4A2G2 | A2B2c8 |
c2d2e2c2d2B2 | c2c2B8 |
d3ef4d4 | c2d2e4c4 |
d3ef4d4 | c2d2e4c4 |
F2A2B4A2G2 | A2B2c8 |
c2d2e2c2d2B2 | c2c2B8

@@@ Tune index: 5018
